images/icons8-twitter.svg

<svg xmlns="http://www.w3.org/2000/svg"  viewBox="0 0 48 48" width="48px" height="48px"><path d="M 32 6 C 26.568583 6 22.160643 10.388731 22.042969 15.792969 C 17.240727 15.216998 14.113589 13.421507 12.195312 11.652344 C 10.067982 9.6903754 9.3945312 7.9472656 9.3945312 7.9472656 A 1.50015 1.50015 0 0 0 6.8007812 7.5996094 C 6.8007812 7.5996094 5 10 5 13.5 C 5 15.500985 5.6317952 16.981554 6.3847656 18.236328 C 6.3570276 18.223338 6.1699219 18.158203 6.1699219 18.158203 A 1.50015 1.50015 0 0 0 4.0058594 19.636719 C 4.0058594 19.636719 4.5832039 23.856843 8.5507812 26.941406 L 8.1367188 27.044922 A 1.50015 1.50015 0 0 0 7.1972656 29.244141 C 7.1972656 29.244141 7.8700527 30.382221 9.2792969 31.580078 C 10.11485 32.290298 11.34227 33.023169 12.789062 33.701172 C 11.012271 34.35044 8.362818 35 4.5 35 A 1.50015 1.50015 0 0 0 3.3710938 37.488281 C 3.3710938 37.488281 4.5173251 38.751002 6.7832031 39.849609 C 9.0490812 40.948217 12.539474 42 17.5 42 C 26.219697 42 32.484656 37.817151 36.394531 32.515625 C 40.304407 27.214099 42 20.861111 42 16 C 42 15.691547 41.980739 15.387437 41.953125 15.085938 C 44.064371 13.051602 44.856626 11.522235 44.894531 11.447266 C 45.084531 11.066266 45.01375 10.608688 44.71875 10.304688 C 44.42475 9.9996875 43.969031 9.9137969 43.582031 10.091797 L 43.419922 10.166016 C 43.280922 10.230016 43.141953 10.294422 43.001953 10.357422 C 43.408953 9.7084219 43.730125 9.014875 43.953125 8.296875 C 44.077125 7.900875 43.943234 7.4669375 43.615234 7.2109375 C 43.287234 6.9549375 42.835469 6.9275312 42.480469 7.1445312 C 41.258221 7.8873594 40.086652 8.40739 38.867188 8.7558594 C 37.072578 7.0534724 34.656873 6 32 6 z M 32 9 C 35.883178 9 39 12.116822 39 16 C 39 20.138889 37.445593 26.035901 33.980469 30.734375 C 30.515344 35.432849 25.280303 39 17.5 39 C 13.7348 39 11.230189 38.318942 9.3535156 37.582031 C 11.319341 37.276755 13.011947 36.869367 14.228516 36.398438 C 16.338182 35.581792 17.476563 34.638672 17.476562 34.638672 A 1.50015 1.50015 0 0 0 16.863281 32.044922 C 14.140556 31.364241 12.394328 30.263307 11.298828 29.345703 L 12.863281 28.955078 A 1.50015 1.50015 0 0 0 13.039062 26.099609 C 9.7939415 24.851486 8.4312292 23.086373 7.734375 21.607422 C 8.5823538 21.782967 9.3718961 22 10.5 22 A 1.50015 1.50015 0 0 0 11.169922 19.158203 C 11.169922 19.158203 8 17.7 8 13.5 C 8 12.745947 8.2088435 12.268355 8.3613281 11.697266 C 8.884507 12.400354 9.3156815 13.07859 10.160156 13.857422 C 12.734824 16.231954 16.990366 18.653154 23.419922 18.998047 A 1.50015 1.50015 0 0 0 25 17.5 L 25 16 C 25 12.116822 28.116822 9 32 9 z"/></svg>

<svg xmlns="http://www.w3.org/2000/svg" xmlns:xlink="http://www.w3.org/1999/xlink" viewBox="0,0,256,256" width="48px" height="48px" fill-rule="nonzero"><g fill="#ffffff" fill-rule="nonzero" stroke="none" stroke-width="1" stroke-linecap="butt" stroke-linejoin="miter" stroke-miterlimit="10" stroke-dasharray="" stroke-dashoffset="0" font-family="none" font-weight="none" font-size="none" text-anchor="none" style="mix-blend-mode: normal"><g transform="scale(5.33333,5.33333)"><path d="M32,6c-5.43142,0 -9.83936,4.38873 -9.95703,9.79297c-4.80224,-0.57597 -7.92938,-2.37146 -9.84766,-4.14062c-2.12733,-1.96197 -2.80078,-3.70508 -2.80078,-3.70508c-0.20019,-0.50441 -0.65719,-0.86137 -1.19506,-0.93346c-0.53787,-0.07209 -1.07274,0.15192 -1.39869,0.58581c0,0 -1.80078,2.40039 -1.80078,5.90039c0,2.00099 0.6318,3.48155 1.38477,4.73633c-0.02774,-0.01299 -0.21484,-0.07812 -0.21484,-0.07812c-0.48683,-0.24307 -1.06711,-0.20346 -1.51639,0.1035c-0.44929,0.30696 -0.69713,0.83314 -0.64767,1.37502c0,0 0.57734,4.22012 4.54492,7.30469l-0.41406,0.10352c-0.45564,0.11375 -0.83172,0.4343 -1.0162,0.86617c-0.18448,0.43187 -0.15608,0.92521 0.07675,1.33305c0,0 0.67279,1.13808 2.08203,2.33594c0.83555,0.71022 2.06297,1.44309 3.50977,2.12109c-1.77679,0.64927 -4.42624,1.29883 -8.28906,1.29883c-0.58872,-0.00007 -1.12306,0.34423 -1.3663,0.88035c-0.24323,0.53612 -0.15039,1.16496 0.23739,1.60793c0,0 1.14623,1.26272 3.41211,2.36133c2.26588,1.09861 5.75627,2.15039 10.7168,2.15039c8.7197,0 14.98466,-4.18285 18.89453,-9.48437c3.90988,-5.30153 5.60547,-11.65451 5.60547,-16.51562c0,-0.30845 -0.01926,-0.61256 -0.04687,-0.91406c2.11125,-2.03434 2.9035,-3.5637 2.94141,-3.63867c0.19,-0.381 0.11922,-0.83858 -0.17578,-1.14258c-0.294,-0.305 -0.74972,-0.39089 -1.13672,-0.21289l-0.16211,0.07422c-0.139,0.064 -0.27797,0.12841 -0.41797,0.19141c0.407,-0.649 0.72817,-1.34255 0.95117,-2.06055c0.124,-0.396 -0.00989,-0.82994 -0.33789,-1.08594c-0.328,-0.256 -0.77976,-0.28341 -1.13477,-0.06641c-1.22225,0.74283 -2.39382,1.26286 -3.61328,1.61133c-1.79461,-1.70239 -4.21032,-2.75586 -6.86719,-2.75586zM32,9c3.88318,0 7,3.11682 7,7c0,4.13889 -1.55441,10.0359 -5.01953,14.73438c-3.46513,4.69847 -8.70017,8.26563 -16.48047,8.26563c-3.7652,0 -6.26981,-0.68106 -8.14648,-1.41797c1.96583,-0.30528 3.65843,-0.71266 4.875,-1.18359c2.10967,-0.81665 3.24805,-1.75977 3.24805,-1.75977c0.42567,-0.36534 0.61195,-0.93765 0.48287,-1.48355c-0.12908,-0.5459 -0.55194,-0.97418 -1.09615,-1.1102c-2.72273,-0.68068 -4.46895,-1.78161 -5.56445,-2.69922l1.56445,-0.39062c0.63491,-0.15846 1.09386,-0.71018 1.13407,-1.36333c0.04021,-0.65315 -0.3476,-1.257 -0.95828,-1.49214c-3.24512,-1.24812 -4.60783,-3.01324 -5.30469,-4.49219c0.84798,0.17554 1.63752,0.39258 2.76563,0.39258c0.69545,-0.00057 1.29933,-0.47904 1.45891,-1.15594c0.15957,-0.6769 -0.16701,-1.37472 -0.78898,-1.68586c0,0 -3.16992,-1.4582 -3.16992,-5.6582c0,-0.75405 0.20884,-1.23165 0.36133,-1.80273c0.52318,0.70309 0.95435,1.38132 1.79883,2.16016c2.57467,2.37453 6.83021,4.79573 13.25977,5.14063c0.41116,0.02194 0.81326,-0.12608 1.11206,-0.40937c0.2988,-0.28329 0.46803,-0.67693 0.46802,-1.08868v-1.5c0,-3.88318 3.11682,-7 7,-7z"></path></g></g></svg>
